src/svgs/dump-truck.svg

<svg xmlns="http://www.w3.org/2000/svg" viewBox="0 0 24 24" width="512" height="512" aria-labelledby="dzdump-truck-desc dzdump-truck-title"><title id="dzdump-truck-title">Dump Truck Icon</title><desc id="dzdump-truck-desc">A picture showing a dump truck.</desc><path d="M18 14a2.986 2.986 0 00-2.388 1.2L13 16l-3-3V6l1 1v5l2 2 11-2-2-6H12l-2-2H4v1h2l-2 6H2l-1 4H0v3h2.184a2.982 2.982 0 005.632 0h7.368A2.995 2.995 0 1018 14zM5 18a1 1 0 111-1 1 1 0 01-1 1zm1-8l1-3h2v3zm12 8a1 1 0 111-1 1 1 0 01-1 1z"/></svg>

<svg xmlns="http://www.w3.org/2000/svg" viewBox="0 0 24 24"><path d="M18,14a2.986,2.986,0,0,0-2.388,1.2L13,16l-3-3V6l1,1v5l2,2,11-2L22,6H12L10,4H4V5H6L4,11H2L1,15H0v3H2.184a2.982,2.982,0,0,0,5.632,0h7.368A2.995,2.995,0,1,0,18,14ZM5,18a1,1,0,1,1,1-1A1,1,0,0,1,5,18Zm1-8L7,7H9v3Zm12,8a1,1,0,1,1,1-1A1,1,0,0,1,18,18Z"/></svg>
